X: 598
T: Glory in the Meeting House
B: jims roots
M:C|
L:1/8
Q: 1/4=100
K:A
V:1 
%N:Transcribed by Bruce Thomson from Open House (GLCD 1122)
"E"[E2B2]yJ[e2e2] edBA | ([Be] [e3e3])[e3e3]A | Bdez edBA | "(D)"GBAG EGAG |"E"Bd e2 edBA |
Bd y[e2e2][e3e3] (f|Jg2) ed BBA=G | [1 "(D)"^GBAG "E"EGAG:|[2 "(D)"^GBAG "E"E2 y!fine!J[e2(e2]||
|:"E"[e)e]f=ga b2 {^a}b2 | aba=g edBd | e"1"f"1"=ga b"4"c'ba | =g e3 e3 f | ef=ga b2 bg |
aba=g edBd | gfgf edBA| [1 GBAG E2 yJ[e2e2]:| [2 GBAG "D.C. al fine"EGA(G |]
E2)|:"E"EF=GA BdBA | GEAG E=GDG | EF=GA BdBA | =G E3 E3 d |
EF=GA BdBA | =GDAG EGDG | EF=GA edBA | [1 =GE3 E2 E2:| [2 G E3 EGAd |]
% abcbook-tune_id 6298c25d26eac01390f6e25e


% abcbook-boost 0
% abcbook-tablature 
% abcbook-transpose 
% abcbook-lastupdated 1654178398244
% abcbook-soundfonts 
% abcbook-repeats 1


